images/search.svg

<svg width="14" height="14" viewBox="0 0 14 14" fill="none" xmlns="http://www.w3.org/2000/svg">
<path d="M13.771 12.7518L10.4389 9.28631C11.2957 8.26788 11.7651 6.98648 11.7651 5.65249C11.7651 2.53576 9.22931 0 6.11258 0C2.99584 0 0.460083 2.53576 0.460083 5.65249C0.460083 8.76923 2.99584 11.305 6.11258 11.305C7.28264 11.305 8.39766 10.9521 9.35096 10.2821L12.7083 13.7739C12.8486 13.9196 13.0374 14 13.2396 14C13.4311 14 13.6127 13.927 13.7506 13.7943C14.0435 13.5124 14.0529 13.045 13.771 12.7518ZM6.11258 1.47456C8.41634 1.47456 10.2905 3.34873 10.2905 5.65249C10.2905 7.95625 8.41634 9.83043 6.11258 9.83043C3.80882 9.83043 1.93465 7.95625 1.93465 5.65249C1.93465 3.34873 3.80882 1.47456 6.11258 1.47456Z" fill="black"/>
</svg>

<svg width="14" height="14" fill="none" xmlns="http://www.w3.org/2000/svg"><path d="M13.771 12.752l-3.332-3.466a5.634 5.634 0 001.326-3.634A5.659 5.659 0 006.113 0 5.659 5.659 0 00.46 5.652a5.659 5.659 0 005.653 5.653c1.17 0 2.285-.353 3.238-1.023l3.357 3.492c.14.146.33.226.532.226a.738.738 0 00.531-1.248zM6.113 1.475a4.183 4.183 0 014.177 4.177A4.183 4.183 0 016.114 9.83a4.183 4.183 0 01-4.178-4.178 4.183 4.183 0 014.178-4.177z" fill="#000"/></svg>
